.icons/oomox-ad/16x16/apps/system-suspend-hibernate.svg

<svg xmlns="http://www.w3.org/2000/svg" width="16" height="16" version="1">
 <circle style="fill:#673ab7" cx="8" cy="8" r="8"/>
 <path style="fill:#ffffff" d="M 8 3 A 5 5 0 0 0 3 8 A 5 5 0 0 0 8 13 A 5 5 0 0 0 13 8 A 5 5 0 0 0 8 3 z M 8 5 A 2.9999998 2.9999998 0 0 1 11 8 A 2.9999998 2.9999998 0 0 1 8 11 A 2.9999998 2.9999998 0 0 1 5 8 A 2.9999998 2.9999998 0 0 1 8 5 z M 8 7 A 0.99999995 0.99999995 0 0 0 7 8 A 0.99999995 0.99999995 0 0 0 8 9 A 0.99999995 0.99999995 0 0 0 9 8 A 0.99999995 0.99999995 0 0 0 8 7 z"/>
</svg>

<svg xmlns="http://www.w3.org/2000/svg" width="16" height="16" version="1">
 <circle fill="#9f65d3" cx="8" cy="8" r="8"/>
 <path fill="#fff" d="m8 3c-2.7614 0-5 2.2386-5 5 0 2.761 2.2386 5 5 5 2.761 0 5-2.239 5-5 0-2.7614-2.239-5-5-5zm0 1c2.209 0 4 1.7909 4 4 0 2.209-1.791 4-4 4-2.2091 0-4-1.791-4-4 0-2.2091 1.7909-4 4-4z"/>
 <path fill="#fff" d="m8 7a1 1 0 0 0 -1 1 1 1 0 0 0 1 1 1 1 0 0 0 1 -1 1 1 0 0 0 -1 -1z"/>
</svg>
